!!!ONB: MCCC : IFC0055_01 : Extracted Monophonic Melody
!!!COM: Chopin, Frédéric
!!!OPR: Mazurkas
!!!OMV: 1
!!!SCT: Op.56
!!!ODT: 1843///
**kern
*thru
*staff1
*Ipiano
*clefG2
*k[f#]
*G:
*M3/4
*MM156
8d
8r
8f#
8e
8d
8f#
=1
8a
16r
16b
2cc
=2
8b
16r
16a
4g
4b
=3
4ee
2dd
=4
8d
8r
8f#
8e
8d
8f#
=5
8a
16r
16b
2cc
=6
8b
16r
16a
4g
4e
=7
4g
2e
=8
8d
8r
8f#
8e
8d
8f#
=9
8a
16r
16b
2cc
=10
8b
16r
16a
4g
4b
=11
2ee
4dd
=12
8.cc
16b
4a
4b
=13
8.a
16g#
4b
4a
=14
8.b
16a
4g
4a
=15
8.g
16f#
4a
4g
=16
8.a#
16b
2e
=17
8f#
8g
12b
12cc
12b
8a
8b
=18
8cc
8dd
4ee
8dd
8cc
=19
8b
.
8a#
.
2e
=20
8f#
8g
12b
12cc
12b
8a
8b
=21
8cc
8dd
4ee
8dd
8cc
=22
8b
16r
16cc
12b
12cc
12b
8g
8e
=23
8d
8r
8f#
8e
8d
8f#
=24
8a
16r
16b
2cc
=25
8b
16r
16a
4g
4b
=26
4ee
2dd
=27
8d
8r
8f#
8e
8d
8f#
=28
8a
16r
16b
2cc
=29
8b
16r
16a
4g
4e
=30
4g
2e
=31
8c
8r
8f#
8e
8d
8f#
=32
8a
16r
16b
2cc
=33
8b
16r
16a
4g
4b
=34
2ee
4dd
=35
8.cc
16b
4a
4b
=36
8.a
16g#
4b
4a
=37
8.b
16a
4g
4a
=38
8.g
16f#
4a
4g
=39
4r
2g[
=40
2.g]
=41
4r
4g
4a
=42
[2.b-
=43
4b-]
4b-
4cc
=44
[2.dd
=45
4.dd]
8dd
8.ee-
16dd
=46
4dd
2a
=47
[2.a
=48
2.a]
=49
4g
4g
4e
=50
4f#
4f#
4f#
=51
8g#
16r
16a
4b
8.cc
16b
=52
8.b
16a
2ee[
=53
8ee]
8dd
4cc
8.b
16a
=54
4g#
4a
12e
12f#
12e
=55
4d
8f#
8e
8d
8f#
=56
8a
16r
16b
2cc
=57
8b
16r
16a
4g
4b
=58
4ee
2dd
=59
8d
8r
8f#
8e
8d
8f#
=60
8a
16r
16b
2cc
=61
8b
16r
16a
4g
4e
=62
4g
[2e
=63
4e]
8f#
8e
8d
8f#
=64
8a
16r
16b
2cc
=65
8b
16r
16a
4g
4b
=66
2ee
4dd
=67
8.cc
16b
4a
4b
=68
8.a
16g#
4b
4a
=69
8.b
16a
4g
4a
=70
8.g
16f#
4a
4g
=71
4e-
4e-
4e-
=72
8.e-
16d
4c#
4d
=73
8.e-
16f
4g
8.f
16e-
=74
8.e-
16d
4c#
4d
=75
8g#
16r
16a
4b
4cc
=76
8.cc#
16dd
4.gg
8b
=77
8g#
16r
16a
4b
4cc
=78
8.ee
16dd
8.bb
16gg
12dd
12b
12g
=79
4ee-
4ee-
4ee-
=80
8.ee-
16dd
4cc#
4dd
=81
8.ee-
16ff
4gg
8.ff
16ee-
=82
8.ee-
16dd
4cc#
4dd
=83
8g#
16r
16a
4b
4cc
=84
8.cc#
16ee
4gg
4ee
=85
8.gg
16ee
4cc#
4b-
=86
8.ee
16dd
4cc
4f#
=87
2.g
=88
[2.g
=89
2g]
4b
=90
4cc
4cc
12cc
12dd
12cc
=91
4b
4g
4g
=92
[2.g
=93
2g]
4b
=94
4cc
4cc
12cc
12dd
12cc
=95
2b
4b
=96
4b
4a
12a
12b
12a
=97
4g
4d
4d
=98
4d
4d
12d
12e
[12d
=99
2.d_
=100
2d]
4e-
=101
8e
8d
4d
4gg
=102
2.ggg
==
*-
